pixmaps/battery.svg

<?xml version="1.0" encoding="utf-8"?><!-- Uploaded to: SVG Repo, www.svgrepo.com, Generator: SVG Repo Mixer Tools -->
<svg width="800px" height="800px" viewBox="0 0 128 128" xmlns="http://www.w3.org/2000/svg" xmlns:xlink="http://www.w3.org/1999/xlink" aria-hidden="true" role="img" class="iconify iconify--noto" preserveAspectRatio="xMidYMid meet"><path d="M34.02 20.35v88.57c0 7.92 13.42 14.34 29.98 14.34c16.56 0 29.98-6.42 29.98-14.34V20.35H34.02z" fill="#8dcc47"></path><path d="M94 20.36c0 9.44-15.79 15.37-29.98 15.37c-13.82 0-29.02-5.96-29.98-15.37c-1.03-10.14 13.42-17.1 29.98-17.1S94 10.92 94 20.36z" fill="#9ee350"></path><ellipse cx="64.2" cy="17.55" rx="23.64" ry="11.43" fill="#d9d9d9"></ellipse><path d="M76.56 6.44v.66c.03-.41 0-.66 0-.66z" fill="#9e9e9e"></path><path d="M76.99 51.54c0-.66-.25-1.06-.86-1.3c-.57-.23-1.4.01-2.25.23c-1.68.42-3.41.66-4.97.64c-.63-.01-.57-.61-.57-1.16v-5.48c0-.6-.07-1.36-1.18-1.36c-.67 0-1.48.18-3.17.2c-1.69-.01-2.5-.2-3.17-.2c-1.11 0-1.18.76-1.18 1.36v5.48c0 .55.06 1.15-.57 1.16c-1.56.02-3.29-.22-4.97-.64c-.86-.21-1.68-.45-2.25-.23c-.61.25-.86.64-.86 1.3l-.03 5.09c.28.79.57 1.36.89 1.53c.94.49 2.99 1.24 6.27 1.4c.65.03 1.38-.19 1.53.52c.07.35 0 4.67 0 6.42c0 1.59 2.3 1.76 3.54 1.86c.27.02 1.35.02 1.61 0c1.23-.11 3.54-.27 3.54-1.86c0-1.75-.07-6.07 0-6.42c.15-.71.87-.49 1.53-.52c3.28-.16 5.33-.92 6.27-1.4c.31-.16.61-.73.89-1.53l-.04-5.09z" fill="#ffffff"></path><path d="M75.07 102.56s-3.85 1.17-11.07 1.17s-11.07-1.17-11.07-1.17c-1.37-.2-1.95.87-1.95 1.95v4.22c0 1 .65 1.93 1.81 2.5c2.39 1.18 6.25 1.98 10.87 1.93c.12 0 .23-.01.35-.01c.12 0 .23.01.35.01c4.63.05 8.48-.75 10.87-1.93c1.16-.57 1.81-1.5 1.81-2.5v-4.22c-.01-1.08-.6-2.15-1.97-1.95z" fill="#ffffff"></path><path d="M58.59 27.81c1.6-1.54-4.16-2.87-6.88-3.8c-3.42-1.17-7-3.23-8.09-7.26c-.82-3.04-2.25-2.09-2.51-1.73c-.37.51-1.8 3.49.95 6.8c1.89 2.28 4.95 4.01 7.56 4.89c3.57 1.21 7.91 2.12 8.97 1.1z" fill="#f5f5f5"></path><path d="M56 13.18c.33-1.12 3.23-1.81 4.99-1.83c3.01-.04 6.11 2.27 6.57 3.06c1.29 2.2-1.65 2.98-6.79 2.53c-3.46-.3-5.1-2.63-4.77-3.76z" fill="#f5f5f5"></path><path d="M73.11 15.01c-.35-.62-.71-1.27-1.05-1.9c-.36-.65-.35.05-.43.32c-.41 1.42-1.22 2.05-1.79 2.36c-1.72.92-3.78 1.36-5.83 1.33c-2.06.02-4.11-.41-5.83-1.33c-.58-.31-1.38-.94-1.79-2.36c-.08-.28-.07-.97-.43-.32c-.35.63-.7 1.28-1.05 1.9c-.9 1.58-.12 3.33 1.03 4.45c2.01 1.95 5.13 2.85 8.08 2.85s6.07-.9 8.08-2.85c1.14-1.13 1.91-2.88 1.01-4.45z" fill="#9e9e9e"></path></svg>

<?xml version="1.0" encoding="utf-8"?>
<svg width="512px" height="512px" viewBox="0 0 128 128" xmlns="http://www.w3.org/2000/svg" xmlns:xlink="http://www.w3.org/1999/xlink" aria-hidden="true" role="img" class="iconify iconify--noto" preserveAspectRatio="xMidYMid meet"><path d="M34.02 20.35v88.57c0 7.92 13.42 14.34 29.98 14.34c16.56 0 29.98-6.42 29.98-14.34V20.35H34.02z" fill="#8dcc47"></path><path d="M94 20.36C94 29.8 78.21 35.73 64.02 35.73C50.2 35.73 35 29.77 34.04 20.36C33.01 10.22 47.46 3.26 64.02 3.26S94 10.92 94 20.36Z" fill="#9ee350"></path><ellipse cx="64.2" cy="17.55" rx="23.64" ry="11.43" fill="#d9d9d9"></ellipse><path d="M76.56 6.44V7.1C76.59 6.69 76.56 6.44 76.56 6.44Z" fill="#9e9e9e"></path><path d="M76.99 51.54C76.99 50.88 76.74 50.48 76.13 50.24C75.56 50.01 74.73 50.25 73.88 50.47C72.2 50.89 70.47 51.13 68.91 51.11C68.28 51.1 68.34 50.5 68.34 49.95V44.47C68.34 43.87 68.27 43.11 67.16 43.11C66.49 43.11 65.68 43.29 63.99 43.31C62.3 43.3 61.49 43.11 60.82 43.11C59.71 43.11 59.64 43.87 59.64 44.47V49.95C59.64 50.5 59.7 51.1 59.07 51.11C57.51 51.13 55.78 50.89 54.1 50.47C53.24 50.26 52.42 50.02 51.85 50.24C51.24 50.49 50.99 50.88 50.99 51.54L50.96 56.63C51.24 57.42 51.53 57.99 51.85 58.16C52.79 58.65 54.84 59.4 58.12 59.56C58.77 59.59 59.5 59.37 59.65 60.08C59.72 60.43 59.65 64.75 59.65 66.5C59.65 68.09 61.95 68.26 63.19 68.36C63.46 68.38 64.54 68.38 64.8 68.36C66.03 68.25 68.34 68.09 68.34 66.5C68.34 64.75 68.27 60.43 68.34 60.08C68.49 59.37 69.21 59.59 69.87 59.56C73.15 59.4 75.2 58.64 76.14 58.16C76.45 58 76.75 57.43 77.03 56.63L76.99 51.54Z" fill="#ffffff"></path><path d="M75.07 102.56S71.22 103.73 64 103.73S52.93 102.56 52.93 102.56C51.56 102.36 50.98 103.43 50.98 104.51V108.73C50.98 109.73 51.63 110.66 52.79 111.23C55.18 112.41 59.04 113.21 63.66 113.16C63.78 113.16 63.89 113.15 64.01 113.15C64.13 113.15 64.24 113.16 64.36 113.16C68.99 113.21 72.84 112.41 75.23 111.23C76.39 110.66 77.04 109.73 77.04 108.73V104.51C77.03 103.43 76.44 102.36 75.07 102.56Z" fill="#ffffff"></path><path d="M58.59 27.81C60.19 26.27 54.43 24.94 51.71 24.01C48.29 22.84 44.71 20.78 43.62 16.75C42.8 13.71 41.37 14.66 41.11 15.02C40.74 15.53 39.31 18.51 42.06 21.82C43.95 24.1 47.01 25.83 49.62 26.71C53.19 27.92 57.53 28.83 58.59 27.81Z" fill="#f5f5f5"></path><path d="M56 13.18C56.33 12.06 59.23 11.37 60.99 11.35C64 11.31 67.1 13.62 67.56 14.41C68.85 16.61 65.91 17.39 60.77 16.94C57.31 16.64 55.67 14.31 56 13.18Z" fill="#f5f5f5"></path><path d="M73.11 15.01C72.76 14.39 72.4 13.74 72.06 13.11C71.7 12.46 71.71 13.16 71.63 13.43C71.22 14.85 70.41 15.48 69.84 15.79C68.12 16.71 66.06 17.15 64.01 17.12C61.95 17.14 59.9 16.71 58.18 15.79C57.6 15.48 56.8 14.85 56.39 13.43C56.31 13.15 56.32 12.46 55.96 13.11C55.61 13.74 55.26 14.39 54.91 15.01C54.01 16.59 54.79 18.34 55.94 19.46C57.95 21.41 61.07 22.31 64.02 22.31S70.09 21.41 72.1 19.46C73.24 18.33 74.01 16.58 73.11 15.01Z" fill="#9e9e9e"></path></svg>
